static/fa/svgs/solid/guarani-sign.svg

<svg xmlns="http://www.w3.org/2000/svg" viewBox="0 0 384 512"><!--! Font Awesome Free 6.1.1 by @fontawesome - https://fontawesome.com License - https://fontawesome.com/license/free (Icons: CC BY 4.0, Fonts: SIL OFL 1.1, Code: MIT License) Copyright 2022 Fonticons, Inc.--><path d="M224 32v34.66c39.5 6.64 75 25.37 102.4 52.24 12.6 12.4 12.8 32.6.5 45.2-12.4 12.7-32.7 12-45.3.5-15.8-15.5-35.5-26.9-57.6-32.6v92h128c17.7 0 32 14.3 32 32 0 95.1-69.2 174.1-160 189.3V480c0 17.7-14.3 32-32 32s-32-14.3-32-32v-34.7C69.19 430.1 0 351.1 0 256 0 160.9 69.19 81.89 160 66.65V32c0-17.67 14.3-32 32-32s32 14.33 32 32zm-64 100c-55.2 14.2-96 64.4-96 124 0 59.6 40.8 109.8 96 123.1V132zm64 247.1c44.1-10.7 80.4-47 91.1-91.1H224v91.1z"/></svg>

<svg xmlns="http://www.w3.org/2000/svg" viewBox="0 0 384 512"><!--! Font Awesome Free 6.1.1 by @fontawesome - https://fontawesome.com License - https://fontawesome.com/license/free (Icons: CC BY 4.0, Fonts: SIL OFL 1.1, Code: MIT License) Copyright 2022 Fonticons, Inc. --><path d="M224 32V66.66C263.5 73.3 299 92.03 326.4 118.9C339 131.3 339.2 151.5 326.9 164.1C314.5 176.8 294.2 176.1 281.6 164.6C265.8 149.1 246.1 137.7 224 132V224H352C369.7 224 384 238.3 384 256C384 351.1 314.8 430.1 224 445.3V480C224 497.7 209.7 512 192 512C174.3 512 160 497.7 160 480V445.3C69.19 430.1 0 351.1 0 256C0 160.9 69.19 81.89 160 66.65V32C160 14.33 174.3 0 192 0C209.7 0 224 14.33 224 32H224zM160 132C104.8 146.2 64 196.4 64 256C64 315.6 104.8 365.8 160 379.1V132zM224 379.1C268.1 368.4 304.4 332.1 315.1 288H224V379.1z"/></svg>
